!!!COA:	Josquin des Prez
!!!CDT:	~1450-1521/08/27
!!!OTL@@LAT:Inter natos mulierum
!!!OTL2@@LAT:Fuit homo missus a Deo
!!!AGN:	Motet
!!!SCT:	NJE 19.10
!!!SCA:	New Josquin Edition 19.10
!!!voices:	6
**kern	**kern	**kern	**kern	**kern	**kern
*staff6	*staff5	*staff4	*staff3	*staff2	*staff1
*Ivox	*Ivox	*Ivox	*Ivox	*Ivox	*Ivox
*I"Bassus2	*I"Bassus1	*I"Tenor2	*I"Tenor1	*I"Altus	*I"Superius
*I'B2	*I'B1	*I'T2	*I'T1	*I'A	*I'S
*>[A,B]	*>[A,B]	*>[A,B]	*>[A,B]	*>[A,B]	*>[A,B]
*>Part1[A]	*>Part1[A]	*>Part1[A]	*>Part1[A]	*>Part1[A]	*>Part1[A]
*>Part2[B]	*>Part2[B]	*>Part2[B]	*>Part2[B]	*>Part[B]	*>Part[B]
*clefF4	*clefF4	*clefGv2	*clefGv2	*clefGv2	*clefG2
*k[b-]	*k[b-]	*k[b-]	*k[b-]	*k[b-]	*k[b-]
*>A	*>A	*>A	*>A	*>A	*>A
*M3/1	*M3/1	*M3/1	*M3/1	*M3/1	*M3/1
*met(O)	*met(O)	*met(O)	*met(O)	*met(O)	*met(O)
=1-	=1-	=1-	=1-	=1-	=1-
0FF	0.r	1.F	1r	0c	0.r
.	.	.	1r	.	.
.	.	2G/	.	.	.
1FF	.	1A	[1F	1c	.
=2	=2	=2	=2	=2	=2
0BB-	0.r	2.B-\	1F]	0d	0f
.	.	4c\	.	.	.
.	.	2d\	1F	.	.
.	.	2.D/	.	.	.
1BB-	.	.	1B-	1d	1f
.	.	4E/	.	.	.
.	.	2F/	.	.	.
=3	=3	=3	=3	=3	=3
0GG	0.r	0G	0B-	1.d	1b-
.	.	.	.	.	2b-\
.	.	.	.	2d\	2.b-\
1GG	.	1G	1B-	1d	.
.	.	.	.	.	4a/
.	.	.	.	.	[2g/
=4	=4	=4	=4	=4	=4
1C	0C	2E/	1G	0.c	4g/]
.	.	.	.	.	4f/
.	.	2C/	.	.	4e/
.	.	.	.	.	4d/
2AA/	.	2E/	1A	.	2c/
2FF/	.	2F/	.	.	1f
1C	1C	1G	2G/	.	.
.	.	.	[2c\	.	2e/
=5	=5	=5	=5	=5	=5
0.FF	0F	0.A	4c\]	0c	2f/
.	.	.	4B-\	.	.
.	.	.	4A/	.	2cc\
.	.	.	4G/	.	.
.	.	.	1F	.	2a/
.	.	.	.	.	2.cc\
.	1F	.	1c	1f	.
.	.	.	.	.	4b-\
.	.	.	.	.	4a/
.	.	.	.	.	4g/
=6	=6	=6	=6	=6	=6
0.BB-	0D	0B-	1d	0f	2f/
.	.	.	.	.	2.b-\
.	.	.	2.d\	.	.
.	.	.	.	.	4a/
.	.	.	.	.	4b-\
.	.	.	4e\	.	4cc\
.	1D	1B-	1f	1d	1dd
=7	=7	=7	=7	=7	=7
0.GG	0G	1B-	2r	2d\	2r
.	.	.	1B-	1g	2.dd\
.	.	1G	.	.	.
.	.	.	.	.	4cc\
.	.	.	2c\	4f\	1cc
.	.	.	.	4e\	.
.	1G	2r	1d	2d\	.
.	.	[2G/	.	[2g\	2bni\
=8	=8	=8	=8	=8	=8
0.r	0C	2G/]	0c	4g\]	0cc
.	.	.	.	4f\	.
.	.	1c	.	4e\	.
.	.	.	.	4d\	.
.	.	.	.	4c\	.
.	.	.	.	4d\	.
.	.	4B-\	.	4e\	.
.	.	4A/	.	4f\	.
.	1C	1G	1c	8g\L	1r
.	.	.	.	8f\	.
.	.	.	.	8e\	.
.	.	.	.	8d\J	.
.	.	.	.	2e\	.
=9	=9	=9	=9	=9	=9
[0.FF	1.C	0F	2A/	0f	1.cc
.	.	.	2.c\	.	.
.	.	.	4B-\	.	.
.	4D\	.	4A/	.	2cc\
.	4E\	.	4G/	.	.
.	1F	1r	2A/	1r	1cc
.	.	.	2F/	.	.
=10	=10	=10	=10	=10	=10
0FF]	0C	0F	0c	0f	2a/
.	.	.	.	.	2.cc\
.	.	.	.	.	4b-\
.	.	.	.	.	4a/
.	.	.	.	.	4g/
1FF	2r	1F	1c	2.c\	1a
.	2F\	.	.	.	.
.	.	.	.	4d\	.
=11	=11	=11	=11	=11	=11
0C	2E\	0G	2r	2.e\	0.g
.	2C/	.	1c	.	.
.	.	.	.	4f\	.
.	2.E\	.	.	1.g	.
.	.	.	2G/	.	.
.	4F\	.	.	.	.
1GG	1G	1G	[1B-	.	.
.	.	.	.	2d\	.
=12	=12	=12	=12	=12	=12
2r	1D	1r	2B-\]	1.f	1r
2D\	.	.	2.A/	.	.
2BB-/	1r	1r	.	.	1r
.	.	.	4G/	.	.
2C/	.	.	1G	4e\	.
.	.	.	.	4d\	.
1AA	1r	2r	.	1c	1a
.	.	2c\	2F#i/	.	.
=13	=13	=13	=13	=13	=13
1GG	2r	1B-	1G	2B-\	2.b-\
.	2G\	.	.	1d	.
.	.	.	.	.	8a/L
.	.	.	.	.	8g/J
1r	2D\	2A/	1r	.	2f/
.	2E\	2G/	.	2c\	1g
1r	1D	1A	2r	2d\	.
.	.	.	2A/	[2d\	2f#i/
=14	=14	=14	=14	=14	=14
2r	1GG	2G/	1B-	4d\]	1g
.	.	.	.	4c\	.
2G\	.	1d	.	4d\	.
.	.	.	.	4e\	.
2D\	2r	.	2A/	2f\	1r
2E\	2C/	2c\	2G/	1g	.
1D	2F\	1d	1A	.	1a
.	[2D\	.	.	2f#i\	.
=15	=15	=15	=15	=15	=15
1GG	2D\]	2r	1G	1g	1b-
.	2G\	2.d\	.	.	.
1r	2E\	.	1r	2r	2g/
.	.	4c\	.	.	.
.	2F\	1c	.	2c\	1a
1r	1D	.	1F	1d	.
.	.	2Bni\	.	.	4g/
.	.	.	.	.	4f/
=16	=16	=16	=16	=16	=16
2r	1C	1c	2G/	1G	2e/
2C/	.	.	2C/	.	2.g/
2D\	2r	2A/	1F	1d	.
.	.	.	.	.	4f/
2BB-/	2D\	2B-\	.	.	1f
1C	2E\	1G	2C/	[1c	.
.	[2C/	.	2G/	.	2e/
=17	=17	=17	=17	=17	=17
2FF/	4C/]	0F	2A/	2c\]	0.f
.	4AA/	.	.	.	.
1BB-	2D\	.	2.F/	2B-\	.
.	1C	.	.	1c	.
.	.	.	4G/	.	.
2AA/	.	.	2A/	.	.
2BB-/	2r	1r	1D	1F	.
2D\	2F\	.	.	.	.
=18	=18	=18	=18	=18	=18
2C/	2E\	0c	0.r	0.r	0.r
1F	1A	.	.	.	.
2E\	2G\	.	.	.	.
2F\	2A\	1c	.	.	.
2A\	2c\	.	.	.	.
=19	=19	=19	=19	=19	=19
1G	2B-\	1d	0.r	0.r	0.r
.	1G	.	.	.	.
2E\	.	2c\	.	.	.
2F\	2A\	1c	.	.	.
1D	2r	.	.	.	.
.	2F\	2Bni\	.	.	.
=20	=20	=20	=20	=20	=20
1.C	1G	[0.c	0.r	2r	1r
.	.	.	.	2G/	.
.	2G\	.	.	2E/	1r
2FF/	1A	.	.	2F/	.
1FF	.	.	.	1A	1f
.	4G\	.	.	.	.
.	4F\	.	.	.	.
=21	=21	=21	=21	=21	=21
1.C	2.E\	0.c]	1r	2G/	1g
.	.	.	.	2.c\	.
.	4D\	.	.	.	.
.	2E\	.	1r	.	2g/
.	.	.	.	4B-\	.
2FF/	1F	.	.	4A/	1a
.	.	.	.	4G/	.
1FF	.	.	2r	1A	.
.	4E\	.	2F/	.	4g/
.	4D\	.	.	.	4f/
=22	=22	=22	=22	=22	=22
0.r	1.C	0c	1G	2r	1e
.	.	.	.	2G/	.
.	.	.	2G/	2E/	1r
.	2FF/	.	1A	2F/	.
.	1FF	1c	.	1A	1f
.	.	.	4G/	.	.
.	.	.	4F/	.	.
=23	=23	=23	=23	=23	=23
1r	2.C/	0c	2.E/	1G	1.g
.	4D\	.	4F/	.	.
1r	2E\	.	2G/	1r	.
.	2F\	.	2A/	.	4f/
.	.	.	.	.	4e/
1GG	1G	1B-	1D	2r	1d
.	.	.	.	2d\	.
=24	=24	=24	=24	=24	=24
1AA	1E	1.A	0.r	1c	1r
2AA/	1F	.	.	2c\	1r
1BB-	.	4G/	.	1d	.
.	.	4F/	.	.	.
.	1BB-	1G	.	.	1b-
4AA/	.	.	.	2e\	.
4GG/	.	.	.	.	.
=25	=25	=25	=25	=25	=25
1FF	1C	2.A/	2.F/	1f	2a/
.	.	.	.	.	2.cc\
.	.	4B-\	4G/	.	.
1r	1r	2c\	2A/	2e\	.
.	.	.	.	.	4b-\
.	.	2d\	2D/	2f\	1a
1r	1r	1B-	1G	1d	.
.	.	.	.	.	2g/
=26	=26	=26	=26	=26	=26
1AA	0.r	[0.A	2E/	2e\	0.a
.	.	.	1F	2c\	.
2D\	.	.	.	2d\	.
1D	.	.	4E/	1f	.
.	.	.	4D/	.	.
.	.	.	1A	.	.
2C/	.	.	.	2e\	.
=27	=27	=27	=27	=27	=27
2D\	0.r	0A]	0.r	2d\	1.a
1F	.	.	.	4c\	.
.	.	.	.	4B-\	.
.	.	.	.	2A/	.
4E\	.	.	.	1d	2f/
4D\	.	.	.	.	.
1E	.	1G	.	.	1g
.	.	.	.	2c#i\	.
=28	=28	=28	=28	=28	=28
1D	1r	2A/	0.r	1.d	1f
.	.	2.B-\	.	.	.
2.D\	0D	.	.	.	1a
.	.	4A/	.	.	.
.	.	1A	.	1f	.
4C/	.	.	.	.	.
1BB-	.	.	.	.	1b-
.	.	2G/	.	4e\	.
.	.	.	.	4d\	.
=29	=29	=29	=29	=29	=29
1AA	2E\	0A	0.r	1c	1cc
.	1F	.	.	.	.
1D	.	.	.	1.d	2r
.	4E\	.	.	.	1a
.	4D\	.	.	.	.
1GG	1G	1B-	.	.	.
.	.	.	.	2e\	2g/
=30	=30	=30	=30	=30	=30
0.r	2F\	1A	0.r	1.f	1a
.	1D	.	.	.	.
.	.	1B-	.	.	2f/
.	2E\	.	.	4e\	2g/
.	.	.	.	4d\	.
.	1F	2A/	.	2c\	[1a
.	.	[2F/	.	[2f\	.
=31	=31	=31	=31	=31	=31
0.r	0.r	2F/]	0.r	2f\]	2a/]
.	.	2G/	.	1e	2.g/
.	.	2A/	.	.	.
.	.	.	.	.	4f/
.	.	2B-\	.	1d	2d/
.	.	1A	.	.	1a
.	.	.	.	2c\	.
=32	=32	=32	=32	=32	=32
0.r	0.r	0.r	2G/	2.g\	2.b-\
.	.	.	2.B-\	.	.
.	.	.	.	4f\	4a/
.	.	.	.	2d\	2.f/
.	.	.	4A/	.	.
.	.	.	2.F/	1f	.
.	.	.	.	.	4g/
.	.	.	.	.	4a/
.	.	.	4G/	.	4b-\
.	.	.	4A/	4e\	[2cc\
.	.	.	4B-\	4d\	.
=33	=33	=33	=33	=33	=33
0.r	1r	0.r	2c\	2e\	4cc\]
.	.	.	.	.	4b-\
.	.	.	2d\	1f	1a
.	1r	.	1B-	.	.
.	.	.	.	4e\	2g/
.	.	.	.	4d\	.
.	2r	.	1A	2.c\	2r
.	[2A\	.	.	.	[2cc\
.	.	.	.	4d\	.
=34	=34	=34	=34	=34	=34
1r	2A\]	0.r	1r	2e\	4cc\]
.	.	.	.	.	4b-\
.	2F\	.	.	2f\	2a/
1r	1G	.	1r	2e\	2.g/
.	.	.	.	1d	.
.	.	.	.	.	4f/
1AA	1A	.	2r	.	1e
.	.	.	2A/	2c#i\	.
=35	=35	=35	=35	=35	=35
1BB-	2.D\	1r	2F/	1d	2r
.	.	.	2G/	.	2d/
.	4E\	.	.	.	.
2AA/	2F\	1r	2A/	1r	2a/
2GG/	1G	.	1D	.	2b-\
1AA	.	1A	.	1r	1cc
.	2F#i\	.	2C/	.	.
=36	=36	=36	=36	=36	=36
1GG	1G	1B-	1D	1d	2.b-\
.	.	.	.	.	8a/L
.	.	.	.	.	8g/J
2D\	2r	2A/	1r	2d\	2f/
2E\	2C/	2G/	.	2c\	1g
1D	2F\	1A	2r	1d	.
.	[2D\	.	2A/	.	2f/
=37	=37	=37	=37	=37	=37
1GG	2D\]	1G	1B-	2r	1g
.	2G\	.	.	2d\	.
1r	2E\	1r	2G/	2e\	1.a
.	2F\	.	1c	2c\	.
1r	1D	1F	.	1d	.
.	.	.	2B-\	.	4g/
.	.	.	.	.	4f/
=38	=38	=38	=38	=38	=38
2r	1C	2G/	1c	1G	2e/
2C/	.	2C/	.	.	2.g/
2D\	2r	1F	2A/	1d	.
.	.	.	.	.	4f/
2BB-/	2D\	.	2B-\	.	1f
1C	2E\	2C/	1G	1c	.
.	2C/	2G/	.	.	2e/
=39	=39	=39	=39	=39	=39
0FF	2C/	2.A/	1F	2r	2f/
.	1F	.	.	1c	1cc
.	.	4B-\	.	.	.
.	.	4c\	1C	.	.
.	.	4C/	.	.	.
.	2A\	1c	.	2.f\	4b-\
.	.	.	.	.	4a/
1r	1G	.	1r	.	1b-
.	.	.	.	4e\	.
.	.	2B-\	.	2e\	.
=40	=40	=40	=40	=40	=40
2r	2F\	1c	2r	2f\	2a/
2C/	4r	.	2c\	2e\	2.g/
.	4C/	.	.	.	.
2D\	2F\	1r	2A/	1d	.
.	.	.	.	.	4f/
2BB-/	2D\	.	2B-\	.	1f
1C	2E\	2r	1G	1c	.
.	[2C/	2G/	.	.	2e/
=41	=41	=41	=41	=41	=41
0FF	2C/]	2.A/	[0.Fl	0c	[0.fl
.	2.F\	.	.	.	.
.	.	4B-\	.	.	.
.	.	4c\	.	.	.
.	4G\	4C/	.	.	.
.	2A\	1c	.	.	.
1BB-	1D	.	.	1F	.
.	.	2B-\	.	.	.
=42	=42	=42	=42	=42	=42
2AA/	2r	2c\	0.F_	2r	0.f_
2.D\	2.A\	2.F/	.	1f	.
4C/	4B-\	4G/	.	.	.
2AA/	2c\	2A/	.	2e\	.
1BB-	2.F\	2D/	.	1d	.
.	.	[2F/	.	.	.
.	4G\	.	.	.	.
=43	=43	=43	=43	=43	=43
[0.FFl	1A	4F/]	0.F_	1c	0.f_
.	.	4E/	.	.	.
.	.	2C/	.	.	.
.	1r	1D	.	2.A/	.
.	.	.	.	4B-\	.
.	[1Al	1C	.	[1cl	.
=44	=44	=44	=44	=44	=44
0.FF]	0.A]	0.Cl	0.F]	0.c]	0.f]
!!LO:LB:i:g=z
=45||	=45||	=45||	=45||	=45||	=45||
*>B	*>B	*>B	*>B	*>B	*>B
!!!OMD: Secunda pars: Fuit homo missus a Deo
*M2/1	*M2/1	*M2/1	*M2/1	*M2/1	*M2/1
*met(C|)	*met(C|)	*met(C|)	*met(C|)	*met(C|)	*met(C|)
1.FF	1r	0F	0r	0r	0r
.	[1C	.	.	.	.
2GG/	.	.	.	.	.
=46	=46	=46	=46	=46	=46
2AA/	2C/]	0F	0r	0r	0r
2.BB-/	2.D\	.	.	.	.
4C/	4E\	.	.	.	.
2D\	[2F\	.	.	.	.
=47	=47	=47	=47	=47	=47
1C	2F\]	0G	0r	0r	0r
.	4E\	.	.	.	.
.	4D\	.	.	.	.
1r	1E	.	.	.	.
=48	=48	=48	=48	=48	=48
1.FF	1r	[0F	0r	0r	0r
.	[1C	.	.	.	.
2GG/	.	.	.	.	.
=49	=49	=49	=49	=49	=49
2AA/	2C/]	0F]	0r	0r	0r
2.BB-/	1D	.	.	.	.
4C/	.	.	.	.	.
2D\	2BB-/	.	.	.	.
=50	=50	=50	=50	=50	=50
2BB-/	2.D\	[0F	0r	0r	0r
2.D\	.	.	.	.	.
.	4E\	.	.	.	.
.	2F\	.	.	.	.
4E\	.	.	.	.	.
2F\	2BB-/	.	.	.	.
=51	=51	=51	=51	=51	=51
2FF/	2C/	0F]	0r	0r	0r
1BB-	1D	.	.	.	.
4AA/	4C/	.	.	.	.
4GG/	4BB-/	.	.	.	.
=52	=52	=52	=52	=52	=52
2AA/	2C/	1F	0r	0r	0r
2BB-/	2D\	.	.	.	.
[1C	2AA/	2.E/	.	.	.
.	[2E\	.	.	.	.
.	.	4F/	.	.	.
=53	=53	=53	=53	=53	=53
2C/]	2E\]	2G/	0r	0r	0r
4BB-/	4D\	2.A/	.	.	.
4AA/	4C/	.	.	.	.
2BB-/	2D\	.	.	.	.
.	.	4G/	.	.	.
2C/	2E\	2G/	.	.	.
=54	=54	=54	=54	=54	=54
[0FF	[0F	0A	1r	1.F	0a
.	.	.	[1F	.	.
.	.	.	.	2G/	.
=55	=55	=55	=55	=55	=55
0FF]	0F]	0r	2F/]	2A/	0a
.	.	.	2G/	2B-\	.
.	.	.	2A/	2c\	.
.	.	.	2B-\	2d\	.
=56	=56	=56	=56	=56	=56
0r	0r	0r	1c	1e	0g
.	.	.	2B-\	2d\	.
.	.	.	[2c\	[2e\	.
=57	=57	=57	=57	=57	=57
0r	0r	0r	2c\]	2e\]	0g
.	.	.	4B-\	4d\	.
.	.	.	4A/	4c\	.
.	.	.	2B-\	2d\	.
.	.	.	2c\	2e\	.
=58	=58	=58	=58	=58	=58
0r	0r	0r	2A/	2c\	0f
.	.	.	2B-\	2d\	.
.	.	.	2A/	2c\	.
.	.	.	[2B-\	[2d\	.
=59	=59	=59	=59	=59	=59
0r	0r	0r	2B-\]	2d\]	2.d/
.	.	.	4A/	4c\	.
.	.	.	4G/	4B-\	4e/
.	.	.	2A/	2c\	2f/
.	.	.	[2B-\	[2d\	[2g/
=60	=60	=60	=60	=60	=60
0r	1r	0r	4B-\]	4d\]	4g/]
.	.	.	4A/	4c\	4f/
.	.	.	4G/	1c	1f
.	.	.	4F/	.	.
.	2r	.	1G	.	.
.	2G\	.	.	2B-\	2e/
=61	=61	=61	=61	=61	=61
1r	2A\	1r	0F	1c	0f
.	4F\	.	.	.	.
.	4G\	.	.	.	.
1F	4A\	1A	.	2r	.
.	4B-\	.	.	.	.
.	4c\	.	.	[2f\	.
.	4A\	.	.	.	.
=62	=62	=62	=62	=62	=62
1D	2B-\	1F	1r	4f\]	0r
.	.	.	.	4e\	.
.	2A\	.	.	1d	.
1E	1r	1G	2r	.	.
.	.	.	4G/	2c\	.
.	.	.	4A/	.	.
=63	=63	=63	=63	=63	=63
1D	0r	1F	4B-\	0d	1f
.	.	.	4c\	.	.
.	.	.	2.d\	.	.
1r	.	1B-	.	.	1d
.	.	.	4D/	.	.
.	.	.	[2d\	.	.
=64	=64	=64	=64	=64	=64
1r	1AA	1A	4d\]	1r	1e
.	.	.	8c#i\L	.	.
.	.	.	8Bni\J	.	.
.	.	.	2c#i\	.	.
1BB-	1D	2F/	1d	2r	1d
.	.	2G/	.	2d\	.
=65	=65	=65	=65	=65	=65
2AA/	2E\	1A	0r	2c\	1r
2FF/	1F	.	.	2A/	.
1GG	.	1r	.	2.B-\	1b-
.	2E\	.	.	.	.
.	.	.	.	4c\	.
=66	=66	=66	=66	=66	=66
1FF	1F	0r	2r	4d\	2a/
.	.	.	.	4e\	.
.	.	.	2A/	1f	2f/
1r	1r	.	2B-\	.	1g
.	.	.	2c\	2e\	.
=67	=67	=67	=67	=67	=67
2r	0r	0r	1F	2f\	1f
1F	.	.	.	2c\	.
.	.	.	1B-	2d\	1g
2E-\	.	.	.	2e-\	.
=68	=68	=68	=68	=68	=68
2F\	1r	0r	2A/	2c\	2f/
2D\	.	.	2F/	2B-\	1f
1C	2r	.	1G	[1c	.
.	2G\	.	.	.	2e/
=69	=69	=69	=69	=69	=69
1r	2A\	1r	0F	1c]	0f
.	4F\	.	.	.	.
.	4G\	.	.	.	.
1F	4A\	1A	.	2r	.
.	4B-\	.	.	.	.
.	4c\	.	.	[2f\	.
.	4A\	.	.	.	.
=70	=70	=70	=70	=70	=70
1D	2B-\	1F	1r	4f\]	0r
.	.	.	.	4e\	.
.	2A\	.	.	1d	.
1E	1r	1G	2r	.	.
.	.	.	4G/	2c#i\	.
.	.	.	4A/	.	.
=71	=71	=71	=71	=71	=71
1D	0r	1F	4B-\	0d	1f
.	.	.	4c\	.	.
.	.	.	2.d\	.	.
1r	.	1B-	.	.	1d
.	.	.	4D/	.	.
.	.	.	[2d\	.	.
=72	=72	=72	=72	=72	=72
1r	1AA	1A	4d\]	1r	1e
.	.	.	8c#i\L	.	.
.	.	.	8Bni\J	.	.
.	.	.	2c#i\	.	.
1BB-	1D	2F/	1d	2r	1d
.	.	2G/	.	2d\	.
=73	=73	=73	=73	=73	=73
2AA/	2E\	1A	0r	2c\	1r
2FF/	1F	.	.	2A/	.
1GG	.	1r	.	2.B-\	1b-
.	2E\	.	.	.	.
.	.	.	.	4c\	.
=74	=74	=74	=74	=74	=74
1FF	1F	0r	2r	4d\	2a/
.	.	.	.	4e\	.
.	.	.	2A/	1f	2f/
1r	1r	.	2B-\	.	1g
.	.	.	2c\	2e\	.
=75	=75	=75	=75	=75	=75
2r	0r	0r	1F	2f\	1f
1F	.	.	.	2c\	.
.	.	.	1B-	2d\	1g
2E-\	.	.	.	2e-\	.
=76	=76	=76	=76	=76	=76
2F\	1r	1r	2A/	2c\	2f/
2D\	.	.	2F/	2B-\	1f
1C	1E	1G	1G	1c	.
.	.	.	.	.	2e/
=77	=77	=77	=77	=77	=77
1FF	2C/	1A	0F	2r	1f
.	2C/	.	.	1c	.
2r	1D	1F	.	.	1r
[2F\	.	.	.	2B-\	.
=78	=78	=78	=78	=78	=78
2F\]	1C	1G	1r	0c	2.cc\
2E\	.	.	.	.	.
.	.	.	.	.	4b-\
1F	1r	1A	1c	.	4a/
.	.	.	.	.	4g/
.	.	.	.	.	[2a/
=79	=79	=79	=79	=79	=79
2G\	2r	2B-\	2B-\	0r	4a/]
.	.	.	.	.	4g/
2E\	2C/	2c\	2G/	.	1g
1D	1F	[1d	2A/	.	.
.	.	.	[2B-\	.	2f/
=80	=80	=80	=80	=80	=80
2BB-/	2D\	2d\]	2B-\]	0r	1g
2C/	2E\	1.c	4A/	.	.
.	.	.	4G/	.	.
1AA	1C	.	4F/	.	2r
.	.	.	4E/	.	.
.	.	.	4G/	.	2a/
.	.	.	4F/	.	.
=81	=81	=81	=81	=81	=81
1GG	1D	2.B-\	1G	1d	1b-
.	.	4G/	.	.	.
1r	1r	2A/	2r	2c\	2cc\
.	.	2F/	2A/	2d\	[2a/
=82	=82	=82	=82	=82	=82
0r	1r	2G/	2B-\	2B-\	4a/]
.	.	.	.	.	4g/
.	.	2E/	2c\	4A/	1g
.	.	.	.	4G/	.
.	2r	1D	2.d\	1A	.
.	2D\	.	.	.	2f#i/
.	.	.	4c\	.	.
=83	=83	=83	=83	=83	=83
0r	1G	0r	4B-\	2G/	1g
.	.	.	4A/	.	.
.	.	.	1G	2d\	.
.	2E\	.	.	2e\	2g/
.	2F\	.	[2c\	2c\	[2a/
=84	=84	=84	=84	=84	=84
1r	1D	1F	2c\]	1d	2a/]
.	.	.	2B-\	.	4g/
.	.	.	.	.	4f/
2r	1C	2G/	1c	1G	2e/
2C/	.	2E/	.	.	[2g/
=85	=85	=85	=85	=85	=85
2D\	2r	1F	2A/	1d	4g/]
.	.	.	.	.	4f/
2BB-/	2D\	.	2B-\	.	1f
1C	2E\	2D/	1G	[1c	.
.	[2C/	2G/	.	.	2e/
=86	=86	=86	=86	=86	=86
1FF	2C/]	1A	[0Fl	1c]	[0fl
.	2.F\	.	.	.	.
[1BB-	.	2.D/	.	2r	.
.	4E\	.	.	.	.
.	4D\	.	.	[2d\	.
.	4C/	4E/	.	.	.
=87	=87	=87	=87	=87	=87
2BB-/]	2BB-/	4F/	0F_	4d\]	0f_
.	.	4G/	.	4c\	.
2AA/	2C/	2A/	.	1c	.
1BB-	1D	2.F/	.	.	.
.	.	.	.	2B-\	.
.	.	4G/	.	.	.
=88	=88	=88	=88	=88	=88
0FFl	0Cl	0Al	0F]	0cl	0f]
==	==	==	==	==	==
*-	*-	*-	*-	*-	*-
!!!RDF**kern: l=long note in original notation
!!!RDF**kern: i=editorial accidental
!!!ENC:	Victoria Chang
!!!END:	2011/03/21/
!!!SMS1:	Smijers and Antonowycz, No. 84, afl. 49
!!!EED:	Jesse Rodin
!!!EEV:	2011/04/04/
!!attribution-level@Jos: 4 (questionable)
!!!ONB:	Translated from MusicXML and edited on 2011/04/04/ by Craig Sapp
!!muse2ps: u^(2) @{OTL2}^C^@{COA}?\n@{SCT}^i2I150v100,100,100,100,100,130c120Q16
